data/styles/clear/style-clear/symbols/subway-newyork-m.svg

<svg height="24" viewBox="0 0 24 24" width="24"><g fill="none" fill-rule="evenodd"><rect fill="#fff" height="24" opacity=".6" rx="12" width="24"/><rect fill="#3c3e38" height="22" rx="11" width="22" x="1" y="1"/><path d="m7.99230773 6-1.99230773 1.50387445.04221484 9.49354255c.01530175.5012915.51337868 1.002583 1.01145562 1.002583h9.96538474c.498077 0 .9886888-.3299574.9808522-1.002583l-.0422149-9.49354255-1.9923077-1.50387445zm1.61220532 2.01071141h4.98461545l1.4184711 1.10147521v3.85430988h-7.97307703v-3.85430988zm.42616335 7.59038759c0 .4152839-.33449847.7519372-.74711536.7519372-.4126169 0-.7471154-.3366533-.7471154-.7519372s.3344985-.7519372.7471154-.7519372c.41261689 0 .74711536.3366533.74711536.7519372zm6.4750002 0c0 .4152839-.3344985.7519372-.7471154.7519372s-.7471154-.3366533-.7471154-.7519372.3344985-.7519372.7471154-.7519372.7471154.3366533.7471154.7519372zm-5.5037535-7.59038759h1.9961538v5.01291479h-1.9961538z" fill="#fff"/></g></svg>

<svg width="24" height="24" viewBox="0 0 24 24">
  <g fill="none">
    <rect width="24" height="24" fill="#FFF" opacity=".6" rx="12"/>
    <rect width="22" height="22" x="1" y="1" fill="#3C3E38" rx="11"/>
    <path fill="#FFF" d="M7.99230772,6 L6,7.50387445 L6.04221484,16.997417 C6.05751659,17.4987085 6.55559352,18 7.05367046,18 L17.0190552,18 C17.5171322,18 18.007744,17.6700426 17.9999074,16.997417 L17.9576925,7.50387445 L15.9653848,6 L7.99230772,6 Z M9.60451305,8.01071141 L14.5891285,8.01071141 L16.0075996,9.11218662 L16.0075996,12.9664965 L8.03452257,12.9664965 L8.03452257,9.11218662 L9.60451305,8.01071141 Z M10.0306764,15.601099 C10.0306764,16.0163829 9.69617793,16.3530362 9.28356104,16.3530362 C8.87094414,16.3530362 8.53644564,16.0163829 8.53644564,15.601099 C8.53644564,15.1858151 8.87094414,14.8491618 9.28356104,14.8491618 C9.69617793,14.8491618 10.0306764,15.1858151 10.0306764,15.601099 Z M16.5056766,15.601099 C16.5056766,16.0163829 16.1711781,16.3530362 15.7585612,16.3530362 C15.3459443,16.3530362 15.0114458,16.0163829 15.0114458,15.601099 C15.0114458,15.1858151 15.3459443,14.8491618 15.7585612,14.8491618 C16.1711781,14.8491618 16.5056766,15.1858151 16.5056766,15.601099 Z M11.0019231,8.01071141 L12.9980769,8.01071141 L12.9980769,13.0236262 L11.0019231,13.0236262 L11.0019231,8.01071141 Z"/>
  </g>
</svg>
